icon/sti/windows.svg

<svg xmlns="http://www.w3.org/2000/svg" aria-label="Windows" viewBox="0 0 512 512"><rect width="512" height="512" rx="15%" fill="#00adef"/><path fill="#fff" d="M98 145v105h127V127m15-2v125h168V101M98 368V263h127v123m15 1V263h168v148"/></svg>

<svg xmlns="http://www.w3.org/2000/svg" aria-label="Windows" role="img" viewBox="0 0 512 512" height="1em" width="1em">
  <rect width="512" height="512" rx="15%" fill="#00adef"/>
  <path fill="#fff" d="M98 145V250H225V127m15-2V250H408V101M98 368V263H225V386m15 1V263H408V411"/>
</svg>
